X:109
T:Quan vei la lauzeta mover
C:Bernard de Ventadour
M:3/8
L:1/8
K:C
Acd | e2e | e2(e//d//e//f//) | (ed)f | e2f | g2e | (f/e/d/c/) d | e2z :| 
ga(g/f/) | (ed) (d//e//f/) | e2c (dc)!breath!z | (def | g2e | c2 d/c/ | (BA2)- | A2)z |
(e//f//e//d//e)f | g2f | g2a | !breath!d2e | g2e | f2(e//d//c/) | d2 (e//d//c/) | c2z |:
P:Retorn
def | g2e | d2B | (c//B//A/!breath!B) B | d2e | c2d | (BG) (A/B/) | (c/>B/A)z :|





